src/assets/images/github-bottom.svg

<svg height="237" viewBox="0 0 1423 237" width="1423" xmlns="http://www.w3.org/2000/svg"><g fill="none" fill-rule="evenodd"><g fill="#2e6974" transform="translate(70.854301 39.204149)"><path d="m173.587904 62.5166824 18.311465 11.4380354 44.443157-38.0765093 44.380416 30.7356827 30.203711-21.8259943 26.758242 29.1668209 12.358447-11.4380354 46.848446 47.5225896 16.281582-4.642136 14.088191 11.962729 19.064558-5.435462 38.838072 9.63145 26.327904-9.63145 16.293888 13.604364 24.577258-20.131631 26.14032 11.962729 48.579682-7.320593 28.282583 7.320593 26.403455-5.435462 18.14222 5.435462 46.098659-16.827939 65.694931 21.023927h33.75997l20.606419-21.023927 33.273438 24.996841 79.941259-35.2268195 30.617333 15.0951885 18.28388-15.0951885 38.58789 37.8267295 73.47198-16.204274 146.78906 55.410511h-1286.66015223l41.46484373-65.728353 32.7148438 23.922206 71.5179547-13.604364z"/><ellipse cx="906.23962" cy="68.091981" rx="19.773514" ry="19.803636"/><ellipse cx="936.959186" cy="67.738345" rx="29.307172" ry="29.351818"/><ellipse cx="1012.522256" cy="59.251072" rx="29.307172" ry="29.351818"/><ellipse cx="1227.559217" cy="36.264708" rx="21.892104" ry="21.925455"/><ellipse cx="1246.559217" cy="103.264708" rx="21.892104" ry="21.925455"/><ellipse cx="1175.300645" cy="26.36289" rx="26.129286" ry="26.169091"/><ellipse cx="1135.300645" cy="60.36289" rx="26.129286" ry="26.169091"/><ellipse cx="1239.785309" cy="67.290163" rx="21.870319" ry="21.903636"/><ellipse cx="1220.30128" cy="105.790163" rx="32.354348" ry="32.403636"/></g><g fill="#51e0c1"><g><path d="m147.624774 173.278844 54.493106-62.792151 47.313184 31.50853 53.631057-41.066146 16.276876 9.557616 24.398845-45.1316131 65.13574 74.6009271 24.243558-13.927978 35.501065 54.74359 186.020997-10 16.016496-5.289364 6.82007 5.289364h79.927196l11.568864-5.289364 29.351552 5.289364 107.898468 9 73.36409-28.972966 22.916012-1.115369 49.65098 28.038186 33.17804-20.670465 29.39469-6.563398 24.27218 14.994648 59.7895-15.798971 81.90797 15.798971 62.84295 25.289364 79.46174 46.228381h-1423l74.5273438-52.207031z"/><path d="m134.45178 228.722821c-46.2126196-11.308852-5.471247-63.116665 9.381694-127.034835 20.351327-90.2001384 81.021562-82.9449448 81.021562-82.9449448 40.311611 2.497092 58.372457-12.56751418 58.372457-12.56751418 30.74878-18.17364172 16.981393 10.36926888 16.981393 10.36926888-15.861965 28.5868297-51.422179 30.9518858-51.422179 30.9518858-57.302798 5.2394438-64.140813 53.9193563-64.440792 74.2278153.070843 36.169597-3.681516 118.307177-49.894135 106.998324zm34.433145-115.640129c2.635209.685343 5.533825-1.785256 6.5556-5.567015.967472-3.729442-.322086-7.36468-2.967798-8.0788092-2.566765-.6653712-5.530185 1.8287592-6.499945 5.5631062-.977557 3.802378.332588 7.393466 2.912143 8.082718zm6.678244-24.3523025c2.427046 1.1317504 5.744521-.8389461 7.315882-4.3883184 1.587711-3.5716091.880203-7.287796-1.59106-8.4401653-2.425695-1.0833417-5.746471.8559539-7.31453 4.436727-1.598214 3.5428229-.895879 7.3342372 1.589708 8.3917567zm13.078475-23.4163106c2.043263 1.8008503 5.770244.863198 8.342413-2.0104607 2.627485-2.8896698 3.091956-6.7461643 1.073257-8.5355597-2.027849-1.769773-5.772194-.8461903-8.351563 2.030083-2.552179 2.8949248-3.046803 6.7134691-1.064107 8.5159374zm19.879145-17.6053676c.971033 2.5610078 4.751604 3.3683555 8.338 1.9112558 3.621464-1.4168584 5.744438-4.6612309 4.71749-7.1408113-1.03381-2.4648637-4.769904-3.3291109-8.365451-1.8523889-3.627052 1.3903631-5.726137 4.6219863-4.690039 7.0819444zm23.97461-8.3019643c.427454 2.456839 3.591458 3.9322383 7.118074 3.3729625 3.480707-.6404054 5.988803-3.0303277 5.579051-5.4609949-.402888-2.4453841-3.571805-3.9230743-7.056491-3.3382741-3.493836.6044226-6.061823 3.0201671-5.640634 5.4263065zm22.52923-3.7143962c.642896 2.0974376 3.560516 2.9980821 6.557041 2.0363422 2.974247-.9781004 4.837357-3.370171 4.209876-5.4365313-.663484-2.0532873-3.598807-2.9801035-6.570766-2.0069087-2.947135.9071313-4.84422 3.3848878-4.196151 5.4070978zm20.461613-11.2480264c-1.995717 1.6374534-2.633246 4.1590748-1.458657 5.5011053 1.131127 1.4352364 3.732093 1.1550222 5.70418-.5472003 2.011729-1.6717925 2.671198-4.1891555 1.455355-5.5325062-1.154002-1.3861806-3.726166-1.1164248-5.700878.5786012z"/></g><g><ellipse cx="1113.090909" cy="122.703017" rx="28.636364" ry="28.566125"/><ellipse cx="1155.8229" cy="160.907193" rx="43.105728" ry="43"/><ellipse cx="1255.361012" cy="150.397382" rx="54.64384" ry="54.509811"/><ellipse cx="1069.8229" cy="165.907193" rx="43.105728" ry="43"/><ellipse cx="1054.757576" cy="114.591648" rx="48.787879" ry="48.668214"/><ellipse cx="1063.59596" cy="65.570766" rx="21.565657" ry="21.512761"/><ellipse cx="1004.555556" cy="57.459397" rx="15.555556" ry="15.517401"/><ellipse cx="1001.373738" cy="134.693736" rx="40.656566" ry="40.556845"/><ellipse cx="1244.217172" cy="96.250315" rx="29.5" ry="29.427643"/><ellipse cx="1281.217172" cy="80.354459" rx="21.5" ry="21.447266"/><ellipse cx="1303.384104" cy="162.773285" rx="33.333068" ry="33.251309"/><ellipse cx="1257.686869" cy="21.487239" rx="10.606061" ry="10.580046"/><ellipse cx="1301.39394" cy="116.042626" rx="28.323232" ry="28.253762"/><ellipse cx="1185.964979" cy="130.088167" rx="27.247807" ry="27.180975"/></g></g></g></svg>

<?xml version="1.0" encoding="UTF-8"?>
<svg width="1423px" height="237px" viewBox="0 0 1423 237" version="1.1" xmlns="http://www.w3.org/2000/svg" xmlns:xlink="http://www.w3.org/1999/xlink">
    <!-- Generator: Sketch 43.2 (39069) - http://www.bohemiancoding.com/sketch -->
    <title>Bottom</title>
    <desc>Created with Sketch.</desc>
    <defs></defs>
    <g id="Illu" stroke="none" stroke-width="1" fill="none" fill-rule="evenodd">
        <g id="BG" transform="translate(-118.000000, -2747.000000)">
            <g id="Bottom" transform="translate(118.000000, 2245.000000)">
                <g transform="translate(0.000000, 502.000000)">
                    <g id="Planet">
                        <g id="Back" transform="translate(70.854301, 39.204149)" fill="#2E6974">
                            <polygon id="Mountains-Back" points="173.587904 62.5166824 191.899369 73.9547178 236.342526 35.8782085 280.722942 66.6138912 310.926653 44.7878969 337.684895 73.9547178 350.043342 62.5166824 396.891788 110.039272 413.17337 105.397136 427.261561 117.359865 446.326119 111.924403 485.164191 121.555853 511.492095 111.924403 527.785983 125.528767 552.363241 105.397136 578.503561 117.359865 627.083243 110.039272 655.365826 117.359865 681.769281 111.924403 699.911501 117.359865 746.01016 100.531926 811.705091 121.555853 845.465061 121.555853 866.07148 100.531926 899.344918 125.528767 979.286177 90.3019475 1009.90351 105.397136 1028.18739 90.3019475 1066.77528 128.128677 1140.24726 111.924403 1287.03632 167.334914 0.376167767 167.334914 41.8410115 101.606561 74.5558553 125.528767 146.07381 111.924403"></polygon>
                            <g id="Smoke-Back" transform="translate(886.466106, 0.193799)">
                                <ellipse id="Oval-2" cx="19.7735137" cy="67.8981818" rx="19.7735137" ry="19.8036364"></ellipse>
                                <ellipse id="Oval-2" cx="50.4930796" cy="67.5445455" rx="29.3071721" ry="29.3518182"></ellipse>
                                <ellipse id="Oval-2" cx="126.05615" cy="59.0572727" rx="29.3071721" ry="29.3518182"></ellipse>
                                <ellipse id="Oval-2" cx="341.093111" cy="36.0709091" rx="21.8921044" ry="21.9254545"></ellipse>
                                <ellipse id="Oval-2" cx="360.093111" cy="103.070909" rx="21.8921044" ry="21.9254545"></ellipse>
                                <ellipse id="Oval-2" cx="288.834539" cy="26.1690909" rx="26.1292859" ry="26.1690909"></ellipse>
                                <ellipse id="Oval-2" cx="248.834539" cy="60.1690909" rx="26.1292859" ry="26.1690909"></ellipse>
                                <ellipse id="Oval-2" cx="353.319203" cy="67.0963636" rx="21.8703194" ry="21.9036364"></ellipse>
                                <ellipse id="Oval-2" cx="333.835174" cy="105.596364" rx="32.3543482" ry="32.4036364"></ellipse>
                            </g>
                        </g>
                        <g id="Front" fill="#51E0C1">
                            <path d="M147.624774,173.278844 L202.11788,110.486693 L249.431064,141.995223 L303.062121,100.929077 L319.338997,110.486693 L343.737842,65.3550799 L408.873582,139.956007 L433.11714,126.028029 L468.618205,180.771619 L654.639202,170.771619 L670.655698,165.482255 L677.475768,170.771619 L757.402964,170.771619 L768.971828,165.482255 L798.32338,170.771619 L906.221848,179.771619 L979.585938,150.798653 L1002.50195,149.683284 L1052.15293,177.72147 L1085.33097,157.051005 L1114.72566,150.487607 L1138.99784,165.482255 L1198.78734,149.683284 L1280.69531,165.482255 L1343.53826,190.771619 L1423,237 L0,237 L74.5273438,184.792969 L147.624774,173.278844 Z" id="Mountains"></path>
                            <path d="M134.45178,228.722821 C88.2391604,217.413969 128.980533,165.606156 143.833474,101.687986 C164.184801,11.4878476 224.855036,18.7430412 224.855036,18.7430412 C265.166647,21.2401332 283.227493,6.17552702 283.227493,6.17552702 C313.976273,-11.9981147 300.208886,16.5447959 300.208886,16.5447959 C284.346921,45.1316256 248.786707,47.4966817 248.786707,47.4966817 C191.483909,52.7361255 184.645894,101.416038 184.345915,121.724497 C184.416758,157.894094 180.664399,240.031674 134.45178,228.722821 Z M168.884925,113.082692 C171.520134,113.768035 174.41875,111.297436 175.440525,107.515677 C176.407997,103.786235 175.118439,100.150997 172.472727,99.4368678 C169.905962,98.7714966 166.942542,101.265627 165.972782,104.999974 C164.995225,108.802352 166.30537,112.39344 168.884925,113.082692 Z M175.563169,88.7303895 C177.990215,89.8621399 181.30769,87.8914434 182.879051,84.3420711 C184.466762,80.770462 183.759254,77.0542751 181.287991,75.9019058 C178.862296,74.8185641 175.54152,76.7578597 173.973461,80.3386328 C172.375247,83.8814557 173.077582,87.67287 175.563169,88.7303895 Z M188.641644,65.3140789 C190.684907,67.1149292 194.411888,66.1772769 196.984057,63.3036182 C199.611542,60.4139484 200.076013,56.5574539 198.057314,54.7680585 C196.029465,52.9982855 192.28512,53.9218682 189.705751,56.7981415 C187.153572,59.6930663 186.658948,63.5116106 188.641644,65.3140789 Z M208.520789,47.7087113 C209.491822,50.2697191 213.272393,51.0770668 216.858789,49.6199671 C220.480253,48.2031087 222.603227,44.9587362 221.576279,42.4791558 C220.542469,40.0142921 216.806375,39.1500449 213.210828,40.6267669 C209.583776,42.01713 207.484691,45.2487532 208.520789,47.7087113 Z M232.495399,39.406747 C232.922853,41.863586 236.086857,43.3389853 239.613473,42.7797095 C243.09418,42.1393041 245.602276,39.7493818 245.192524,37.3187146 C244.789636,34.8733305 241.620719,33.3956403 238.136033,33.9804405 C234.642197,34.5848631 232.07421,37.0006076 232.495399,39.406747 Z M255.024629,35.6923508 C255.667525,37.7897884 258.585145,38.6904329 261.58167,37.728693 C264.555917,36.7505926 266.419027,34.358522 265.791546,32.2921617 C265.128062,30.2388744 262.192739,29.3120582 259.22078,30.285253 C256.273645,31.1923843 254.37656,33.6701408 255.024629,35.6923508 Z M275.486242,24.4443244 C273.490525,26.0817778 272.852996,28.6033992 274.027585,29.9454297 C275.158712,31.3806661 277.759678,31.1004519 279.731765,29.3982294 C281.743494,27.7264369 282.402963,25.2090739 281.18712,23.8657232 C280.033118,22.4795426 277.460954,22.7492984 275.486242,24.4443244 Z" id="Left-arm"></path>
                        </g>
                    </g>
                    <g id="Rocket" transform="translate(960.000000, 10.000000)" fill="#51E0C1">
                        <g id="Smoke" transform="translate(0.717172, 0.907193)">
                            <ellipse id="Oval-17" cx="152.373737" cy="111.795824" rx="28.6363636" ry="28.5661253"></ellipse>
                            <ellipse id="Oval-17" cx="195.105728" cy="150" rx="43.1057283" ry="43"></ellipse>
                            <ellipse id="Oval-17" cx="294.64384" cy="139.490189" rx="54.6438397" ry="54.5098111"></ellipse>
                            <ellipse id="Oval-17" cx="109.105728" cy="155" rx="43.1057283" ry="43"></ellipse>
                            <ellipse id="Oval-17" cx="94.040404" cy="103.684455" rx="48.7878788" ry="48.6682135"></ellipse>
                            <ellipse id="Oval-17" cx="102.878788" cy="54.6635731" rx="21.5656566" ry="21.512761"></ellipse>
                            <ellipse id="Oval-17" cx="43.8383838" cy="46.5522042" rx="15.5555556" ry="15.5174014"></ellipse>
                            <ellipse id="Oval-17" cx="40.6565657" cy="123.786543" rx="40.6565657" ry="40.5568445"></ellipse>
                            <ellipse id="Oval-17" cx="283.5" cy="85.3431223" rx="29.5" ry="29.4276434"></ellipse>
                            <ellipse id="Oval-17" cx="320.5" cy="69.4472655" rx="21.5" ry="21.4472655"></ellipse>
                            <ellipse id="Oval-17" cx="342.666932" cy="151.866092" rx="33.3330675" ry="33.2513092"></ellipse>
                            <ellipse id="Oval-17" cx="296.969697" cy="10.5800464" rx="10.6060606" ry="10.5800464"></ellipse>
                            <ellipse id="Oval-17" cx="340.676768" cy="105.135433" rx="28.3232323" ry="28.253762"></ellipse>
                            <ellipse id="Oval-17" cx="225.247807" cy="119.180974" rx="27.247807" ry="27.1809745"></ellipse>
                        </g>
                    </g>
                </g>
            </g>
        </g>
    </g>
</svg>
